X:1
T:Sanctum, 87.87
T:Sanctum, 87.87
T:Josiah Booth (1852-1929)
T:Public Domain Courtesy of the Cyber Hymnal™
C:Josiah Booth (1852-1929)
Z:Public Domain
Z:Courtesy of the Cyber Hymnal™
%%score ( 1 2 ) ( 3 4 )
L:1/8
Q:1/4=112
M:4/4
K:G
V:1 treble 
V:2 treble 
V:3 bass 
V:4 bass 
V:1
 [DG]2 D2 [CE]2 D2 | [Dc]2 [DB]2 [DB]2 [DA]2 | [EA]2 [^DB]2 [EG]3 [=DG] | [^CA]2 [CE]2 [DF]4 | %4
 [B,G]2 D2 [CE]2 D2 | [Cc]3 [DB] [DB]2 [CA]2 | [Fe]3 [Fd] [Gd]2 G2 x | [GB]2 [FA]2 G4 |] %8
V:2
 x2 D2 D2 x2 | x8 | x8 | x8 | x2 D2 D2 x2 | x8 | x6 G2 x | x4 G4 |] %8
V:3
 [G,,B,]2 [B,,G,]2 [C,G,]2 [B,,G,]2 | [A,,F,]2 [G,,G,]2 [D,G,]2 [D,F,]2 | %2
 [C,E,]2 [B,,F,]2 [E,G,]2 [E,B,]2 | [A,,A,]2 [A,,A,]2 [D,A,]4 | %4
 [G,,G,]2 [B,,G,]2 [B,,G,]2 [B,,G,]2 | [E,G,]3 [E,^G,] [E,G,]2 [A,,A,]2 | C3 z C [B,,D]2 [C,E]2 | %7
 [D,D]2 [D,C]2 [G,,B,]4 |] %8
V:4
 x8 | x8 | x8 | x8 | x8 | x8 | A,,2 A,,2 x5 | x8 |] %8

